X:1
T:Title
L:1/8
M:2/4
K:Eb
V:1 treble nm="Grand Piano"
V:1
 z2 z[Q:1/4=100] E | E2 DE | F2 EF | GA BG | AF E2 | BB Bc | B2 F2 | A2 AB | GF E2 | EE F/E/D/E/ | %10
 F4 | BG AF |[M:3/8] E3 |[M:1/8] G |[M:2/4] B2 Bc | B2 GA | B2 Bc | B2 G2 | c2 cd | c2 AB | c2 cd | %21
 c2 A2 | B2 BB | B4 | BG AF | E3 G | B2 Bc | B2 GA | B2 Bc | B2 G2 | c2 cd | c2 AB | c2 cd | %33
 c2 A2 | B2 BB | B4 | BG AF | E4 |] %38

